X: 24463
T: Lucky Kitten, The
R: jig
M: 6/8
K: Amajor
|eec cdB|cAA Bcd|dec dBe|A A/A/A Acd|ecA cdB|
cAA Bc [1d|dec dBe|ABA Acd:|2 e|age dBe|ABA Ace||
age ddd|Bcd Bcd|age ddd|cAe Bcd|
[1 age ddd|Bcd Bcd|c/d/ec dBe|ABA Ace:|
[2 ccA ddB|edc BcB|c/d/ec dBe|ABA Acd:|

